X: 212
T: The Triumph
%R: reel
B: "Twenty Four Country Dances for the Year 1793", Preston & Son, eds. p.86
F: http://www.vwml.org/browse/browse-collections-dance-tune-books/browse-prestons1793# 2014-8-7
Z: 2014 John Chambers <jc:trillian.mit.edu>
N: The rhythms don't quite agree between the strains due to the initial g pickup note.  Not fixed.
M: C|
L: 1/8
K: G
g2 |\
dBAG cAGF | Ggfe (e2d)g |\
dBAG cAGF | G2A2 G2 :|
|:\
A2c2 B2d2 | A2c2 B2d2 |\
AAAc BBBd | dcBA G4 :|
|:\
B3d dcBA | B3d dcBA |\
B2cd efge | dcBA G4 :|
% = = = = = = = = = = = = = = = = = = = = = = = = =
%%begintext align
%% The 1st Lady set to the 2d Gent.n & turn .| the 1st
%% Gent.n set to the 2d Lady & turn :| the 1st Lady take
%% the 2d Gent.n by the right hand & lead him down to
%% the 3d Cu.s place :|. the 1st Gent.n cast off &
%% his Part.r all 3 lead up to the top together :|: the 1st
%% Cu lead down the middle up again & cast off :||
%%endtext
% = = = = = = = = = = = = = = = = = = = = = = = = =

%%sep 1 1 500
%%sep 1 1 500
